client/public/game_modes/fireball/frame4.svg

<svg xmlns="http://www.w3.org/2000/svg" width="437" height="483" fill="none"><path fill="#FF5A00" d="M165.273 210.286v21.143h21.091v-21.143h42.181v21.143h21.091v-21.143h21.091v-21.143h21.091v84.571h21.091v-21.143H334v126.858h-21.091v42.285h-21.091v21.143h-21.091V464H165.273v-21.143h-21.091v-21.143h-21.091v-42.285H102v-148h21.091v42.285h21.091v-63.428h21.091Z"/><path fill="#FF5A00" d="M312.909 231.429v-21.143H334v21.143h-21.091Zm-168.727-42.286V168h21.091v21.143h-21.091Z"/><path fill="#FF9D00" d="M144.182 294.857V316h-21.091v42.286h21.091v63.428h42.182v-42.285h-21.091v-42.286h42.182v-42.286h63.272v-63.428h-21.091v21.142h-21.091v-21.142h-21.09v42.285h-21.091v-21.143h-21.091v42.286h-21.091Zm168.727 84.572v-84.572h-21.091V316h-21.091v21.143h21.091v21.143h-21.091v42.285h-42.182v42.286h21.091v-21.143h42.182v-42.285h21.091Z"/><path fill="#FFD600" d="M228.545 442.857h-42.181v-63.428h-21.091v-42.286h42.182v-42.286h63.272v-21.143h21.091V316h-21.091v21.143h21.091v21.143h-21.091v42.285h-42.182v42.286Z"/><path fill="#FFF1CD" d="M207.455 379.429v-21.143h21.09v-63.429h42.182V316h-21.091v63.429h-42.181Z"/><path fill="#FF7A00" d="M165.273 252.571h-21.091v21.143h-21.091V316h21.091v-21.143h21.091v-42.286Zm-42.182 148v-42.285h21.091v42.285h-21.091Zm63.273-148v-21.142h21.091v42.285h-21.091v-21.143Zm63.272 190.286v-21.143h21.091v-42.285h21.091v42.285h-21.091v21.143h-21.091Z"/><path fill="#FFBF00" d="M207.455 294.857v63.429h-21.091v21.143h-21.091V316h21.091v-21.143h21.091Zm21.09 126.857v21.143h-42.181v-42.286h21.091v21.143h21.09Zm63.273-126.857V316h-21.091v-21.143h-42.182v-21.143h63.273v21.143Z"/><path fill="#FFBF00" d="M228.545 294.857V316h-21.09v-42.286h21.09v21.143Z"/></svg>

<svg width="437" height="483" viewBox="0 0 437 483" fill="none" xmlns="http://www.w3.org/2000/svg">
<path d="M165.273 210.286V231.429H186.364V210.286H228.545V231.429H249.636V210.286H270.727V189.143H291.818V273.714H312.909V252.571H334V379.429H312.909V421.714H291.818V442.857H270.727V464H186.364H165.273V442.857H144.182V421.714H123.091V379.429H102V294.857V231.429H123.091V273.714H144.182V210.286H165.273Z" fill="#FF5A00"/>
<path d="M312.909 231.429V210.286H334V231.429H312.909Z" fill="#FF5A00"/>
<path d="M144.182 189.143V168H165.273V189.143H144.182Z" fill="#FF5A00"/>
<path d="M144.182 294.857V316H123.091V358.286H144.182V400.571V421.714H186.364V379.429H165.273V358.286V337.143H186.364H207.455V316V294.857H270.727V231.429H249.636V252.571H228.545V231.429H207.455V273.714H186.364V252.571H165.273V294.857H144.182Z" fill="#FF9D00"/>
<path d="M312.909 379.429V294.857H291.818V316H270.727V337.143H291.818V358.286H270.727V400.571H228.545V421.714V442.857H249.636V421.714H291.818V400.571V379.429H312.909Z" fill="#FF9D00"/>
<path d="M228.545 442.857H186.364V379.429H165.273V337.143H207.455V294.857H270.727V273.714H291.818V316H270.727V337.143H291.818V358.286H270.727V400.571H228.545V442.857Z" fill="#FFD600"/>
<path d="M207.455 379.429V358.286H228.545V294.857H270.727V316H249.636V379.429H207.455Z" fill="#FFF1CD"/>
<path d="M165.273 252.571H144.182V273.714H123.091V316H144.182V294.857H165.273V252.571Z" fill="#FF7A00"/>
<path d="M123.091 400.571V358.286H144.182V400.571H123.091Z" fill="#FF7A00"/>
<path d="M186.364 252.571V231.429H207.455V252.571V273.714H186.364V252.571Z" fill="#FF7A00"/>
<path d="M249.636 442.857V421.714H270.727V379.429H291.818V421.714H270.727V442.857H249.636Z" fill="#FF7A00"/>
<path d="M207.455 294.857V358.286H186.364V379.429H165.273V316H186.364V294.857H207.455Z" fill="#FFBF00"/>
<path d="M228.545 421.714V442.857H207.455H186.364V400.571H207.455V421.714H228.545Z" fill="#FFBF00"/>
<path d="M291.818 294.857V316H270.727V294.857H228.545V284.286V273.714H270.727H291.818V294.857Z" fill="#FFBF00"/>
<path d="M228.545 294.857V316H207.455V273.714H228.545V294.857Z" fill="#FFBF00"/>
</svg>
